X:68
T: Piros, piros szekfő
O: Trunk (Bákó), 1938
Q: "Guisto" 1/4=120
L:1/4
K:C
A//A//-A c3//_B3// | A c |
G/ G A/G/ | F E z// z/ |
G//G//-G A/G3/4 | F G |
C/C/F/_E/ | D D// z// z/ | 

